X: 40652
T: Top It Off
R: slip jig
M: 9/8
K: Dmajor
|:B|A2F F2d c2A|Bcd e2c d2B|A2F F2d c2A|Bcd A2F D2:|
|:e|f2d d2c d2f|e2=c c2B c2e|d2B B2A B2d|c2A A2c efg|
f2d d2c d2f|e2=c c2B c2e|d2A Bcd e2c|d3 d5:|

